symbols/web/sound_detection_dog_barking/materialsymbolsoutlined/sound_detection_dog_barking_grad200_40px.svg

<svg xmlns="http://www.w3.org/2000/svg" height="40" width="40"><path d="M8 37V20.292l-.458-.417q-.5-.5-.73-1.104-.229-.604-.229-1.271 0-.667.229-1.292.23-.625.73-1.166l5.5-5.542h7.208l6.708-6.667 3.459 3.459q1.708 1.75 2.562 3.916.854 2.167.896 4.417-.042 2.208-.896 4.396-.854 2.187-2.562 3.896l-3.375 3.375V37Zm3.5-3.5h12.042v-8.625l4.416-4.417q1.167-1.166 1.792-2.687t.625-3.146q0-1.583-.604-3.083-.604-1.5-1.813-2.75l-1-1L21.708 13h-7.25l-.875.917 2.75 2.708q1.25 1.292 1.875 2.813.625 1.52.625 3.145t-.645 3.146q-.646 1.521-1.938 2.854l-4.75-4.791Z"/></svg>

<svg xmlns="http://www.w3.org/2000/svg" height="40" width="40"><path d="M8 37V20.292L7.542 19.875Q7.042 19.375 6.812 18.771Q6.583 18.167 6.583 17.5Q6.583 16.833 6.812 16.208Q7.042 15.583 7.542 15.042L13.042 9.5H20.25L26.958 2.833L30.417 6.292Q32.125 8.042 32.979 10.208Q33.833 12.375 33.875 14.625Q33.833 16.833 32.979 19.021Q32.125 21.208 30.417 22.917L27.042 26.292V37ZM11.5 33.5H23.542V24.875L27.958 20.458Q29.125 19.292 29.75 17.771Q30.375 16.25 30.375 14.625Q30.375 13.042 29.771 11.542Q29.167 10.042 27.958 8.792L26.958 7.792L21.708 13H14.458L13.583 13.917L16.333 16.625Q17.583 17.917 18.208 19.438Q18.833 20.958 18.833 22.583Q18.833 24.208 18.188 25.729Q17.542 27.25 16.25 28.583L11.5 23.792Z"/></svg>
